X: 1
T: Music in the Glen
R: reel
Z: 2011 John Chambers <jc:trillian.mit.edu>
S: Roaring Jelly collection
M: C|
L: 1/8
K: A
G \
| "A"A2cA "E7"FAED | "A"CEAc BABc | "D"d2fd "A"c2ec | "Bm"dBcA "E7"BAFE |
| "A"AcBA "D"FA"E7"ED | "A"CEAc BABc | "D"defg "(A)"agaf | "E7"ecBc "A"A3 :|
|: B \
| "A"cAeA "D"fA"(E7)"ed | "A"cAec "E7"dBGB | "A"cAeA "D"fefg | "A"aecA "E7"BAFA |
| "A"cAeA "D"fefg | "A"a2ga "E7"bgeg | "A"a2ga "(F#m)"faec | "Bm"dBcA "E7"BAF :|
